Origami/64x64/apps/vmpk.svg

<svg width="64" height="64" version="1" xmlns="http://www.w3.org/2000/svg">
 <path d="m57 54.333456v-42.667651c0-1.476531-1.114816-2.665805-2.5-2.665805h-45c-1.385 0-2.5 1.189274-2.5 2.666544v42.66765c0 1.476901 1.115 2.665806 2.5 2.665806h45c1.385184 0 2.5-1.188905 2.5-2.665806z" style="opacity:.2"/>
 <path d="m57 53.333456v-42.667651c0-1.476531-1.114816-2.665805-2.5-2.665805h-45c-1.385 0-2.5 1.189274-2.5 2.666544v42.66765c0 1.476901 1.115 2.665806 2.5 2.665806h45c1.385184 0 2.5-1.188905 2.5-2.665806z" style="fill:#4f4f4f"/>
 <rect x="11" y="13" width="6" height="41" ry="1.952" style="opacity:.2"/>
 <rect x="11" y="12" width="6" height="41" ry="1.952" style="fill:#d8d8d8"/>
 <rect x="17" y="13" width="6" height="41" ry="1.952" style="opacity:.2"/>
 <rect x="17" y="12" width="6" height="41" ry="1.952" style="fill:#f0f0f0"/>
 <rect x="23" y="13" width="6" height="41" ry="1.952" style="opacity:.2"/>
 <rect x="23" y="12" width="6" height="41" ry="1.952" style="fill:#d8d8d8"/>
 <rect x="29" y="13" width="6" height="41" ry="1.952" style="opacity:.2"/>
 <rect x="29" y="12" width="6" height="41" ry="1.952" style="fill:#f0f0f0"/>
 <rect x="35" y="13" width="6" height="41" ry="1.952" style="opacity:.2"/>
 <rect x="35" y="12" width="6" height="41" ry="1.952" style="fill:#d8d8d8"/>
 <rect x="41" y="13" width="6" height="41" ry="1.952" style="opacity:.2"/>
 <rect x="41" y="12" width="6" height="41" ry="1.952" style="fill:#f0f0f0"/>
 <rect x="47" y="13" width="6" height="41" ry="1.952" style="opacity:.2"/>
 <rect x="47" y="12" width="6" height="41" ry="1.952" style="fill:#d8d8d8"/>
 <path d="m 15,33.570312 v 1 C 15,35.362302 15.443796,36 15.992188,36 h 2.019531 C 18.560111,36 19,35.362302 19,34.570312 v -1 C 19,34.362302 18.560111,35 18.011719,35 H 15.992188 C 15.443796,35 15,34.362302 15,33.570312 Z m 6,0 v 1 C 21,35.362302 21.440289,36 21.988281,36 h 2.023438 C 24.559711,36 25,35.362302 25,34.570312 v -1 C 25,34.362302 24.559711,35 24.011719,35 H 21.988281 C 21.440289,35 21,34.362302 21,33.570312 Z m 12,0 v 1 C 33,35.362302 33.440289,36 33.988281,36 h 2.023438 C 36.559711,36 37,35.362302 37,34.570312 v -1 C 37,34.362302 36.559711,35 36.011719,35 H 33.988281 C 33.440289,35 33,34.362302 33,33.570312 Z m 6,0 v 1 C 39,35.362302 39.440289,36 39.988281,36 h 2.023438 C 42.559711,36 43,35.362302 43,34.570312 v -1 C 43,34.362302 42.559711,35 42.011719,35 H 39.988281 C 39.440289,35 39,34.362302 39,33.570312 Z m 6,0 v 1 C 45,35.362302 45.440289,36 45.988281,36 h 2.023438 C 48.559711,36 49,35.362302 49,34.570312 v -1 C 49,34.362302 48.559711,35 48.011719,35 H 45.988281 C 45.440289,35 45,34.362302 45,33.570312 Z" style="opacity:.2"/>
 <path d="m15.992837 10.00074c-0.548392 0-0.992185 0.637391-0.992185 1.429579v22.139691c0 0.791989 0.443793 1.429979 0.992185 1.429979h2.01957c0.548392 0 0.988185-0.63799 0.988185-1.429979v-22.139691c0-0.792588-0.439793-1.429979-0.988185-1.429979h-2.01957zm5.995711 0c-0.547992 0-0.987985 0.637391-0.987985 1.429579v22.139691c0 0.791989 0.439993 1.429979 0.987985 1.429979h2.02337c0.547992 0 0.987986-0.63799 0.987986-1.429979v-22.139691c0-0.792588-0.439994-1.429979-0.987986-1.429979h-2.02337zm11.999823 0c-0.547992 0-0.987986 0.637391-0.987986 1.429579v22.139691c0 0.791989 0.439994 1.429979 0.987986 1.429979h2.02337c0.547992 0 0.987985-0.63799 0.987985-1.429979v-22.139691c0-0.792588-0.439993-1.429979-0.987985-1.429979h-2.02337zm5.999911 0c-0.547992 0-0.987986 0.637391-0.987986 1.429579v22.139691c0 0.791989 0.439994 1.429979 0.987986 1.429979h2.02337c0.547992 0 0.987985-0.63799 0.987985-1.429979v-22.139691c0-0.792588-0.439993-1.429979-0.987985-1.429979h-2.02337zm5.999911 0c-0.547992 0-0.987985 0.637391-0.987985 1.429579v22.139691c0 0.791989 0.439993 1.429979 0.987985 1.429979h2.02337c0.547992 0 0.987985-0.63799 0.987985-1.429979v-22.139691c0-0.792588-0.439993-1.429979-0.987985-1.429979h-2.02337z" style="fill:#4f4f4f"/>
 <path d="m15.992188 10c-0.548392 0-0.992188 0.637499-0.992188 1.429688v1c0-0.792189 0.443796-1.429688 0.992188-1.429688h2.019531c0.548392 0 0.988281 0.6375 0.988281 1.429688v-1c0-0.792188-0.439889-1.429688-0.988281-1.429688h-2.019531zm5.996093 0c-0.547992 0-0.988281 0.637499-0.988281 1.429688v1c0-0.792189 0.440289-1.429688 0.988281-1.429688h2.023438c0.547992 0 0.988281 0.6375 0.988281 1.429688v-1c0-0.792188-0.440289-1.429688-0.988281-1.429688h-2.023438zm12 0c-0.547992 0-0.988281 0.637499-0.988281 1.429688v1c0-0.792189 0.440289-1.429688 0.988281-1.429688h2.023438c0.547992 0 0.988281 0.6375 0.988281 1.429688v-1c0-0.792188-0.440289-1.429688-0.988281-1.429688h-2.023438zm6 0c-0.547992 0-0.988281 0.637499-0.988281 1.429688v1c0-0.792189 0.440289-1.429688 0.988281-1.429688h2.023438c0.547992 0 0.988281 0.6375 0.988281 1.429688v-1c0-0.792188-0.440289-1.429688-0.988281-1.429688h-2.023438zm6 0c-0.547992 0-0.988281 0.637499-0.988281 1.429688v1c0-0.792189 0.440289-1.429688 0.988281-1.429688h2.023438c0.547992 0 0.988281 0.6375 0.988281 1.429688v-1c0-0.792188-0.440289-1.429688-0.988281-1.429688h-2.023438z" style="fill:#ffffff;opacity:.1"/>
 <path d="m9.5 8c-1.385 0-2.5 1.1887456-2.5 2.666016v1c0-1.47727 1.115-2.666016 2.5-2.666016h45c1.385184 0 2.5 1.189485 2.5 2.666016v-1c0-1.4765314-1.114816-2.666016-2.5-2.666016h-45z" style="fill:#ffffff;opacity:.1"/>
</svg>

<svg xmlns="http://www.w3.org/2000/svg" width="64" height="64" version="1">
 <path style="opacity:0.2" d="M 57,54.333456 V 11.665805 C 57,10.189274 55.885184,9 54.5,9 H 9.4999999 c -1.385,0 -2.5,1.189274 -2.5,2.666544 v 42.66765 c 0,1.476901 1.115,2.665806 2.5,2.665806 H 54.5 c 1.385184,0 2.5,-1.188905 2.5,-2.665806 z"/>
 <path style="fill:#4f4f4f" d="M 57,53.333456 V 10.665805 C 57,9.189274 55.885184,8 54.5,8 H 9.4999999 c -1.385,0 -2.5,1.189274 -2.5,2.666544 v 42.66765 c 0,1.476901 1.115,2.665806 2.5,2.665806 H 54.5 c 1.385184,0 2.5,-1.188905 2.5,-2.665806 z"/>
 <rect style="opacity:0.2" width="6" height="41" x="11" y="13" ry="1.952"/>
 <rect style="fill:#d8d8d8" width="6" height="41" x="11" y="12" ry="1.952"/>
 <rect style="opacity:0.2" width="6" height="41" x="17" y="13" ry="1.952"/>
 <rect style="fill:#f0f0f0" width="6" height="41" x="17" y="12" ry="1.952"/>
 <rect style="opacity:0.2" width="6" height="41" x="23" y="13" ry="1.952"/>
 <rect style="fill:#d8d8d8" width="6" height="41" x="23" y="12" ry="1.952"/>
 <rect style="opacity:0.2" width="6" height="41" x="29" y="13" ry="1.952"/>
 <rect style="fill:#f0f0f0" width="6" height="41" x="29" y="12" ry="1.952"/>
 <rect style="opacity:0.2" width="6" height="41" x="35" y="13" ry="1.952"/>
 <rect style="fill:#d8d8d8" width="6" height="41" x="35" y="12" ry="1.952"/>
 <rect style="opacity:0.2" width="6" height="41" x="41" y="13" ry="1.952"/>
 <rect style="fill:#f0f0f0" width="6" height="41" x="41" y="12" ry="1.952"/>
 <rect style="opacity:0.2" width="6" height="41" x="47" y="13" ry="1.952"/>
 <rect style="fill:#d8d8d8" width="6" height="41" x="47" y="12" ry="1.952"/>
 <path style="opacity:0.2" d="m 15,33.570312 v 1 C 15,35.362302 15.443796,36 15.992188,36 h 2.019531 C 18.560111,36 19,35.362302 19,34.570312 v -1 C 19,34.362302 18.560111,35 18.011719,35 H 15.992188 C 15.443796,35 15,34.362302 15,33.570312 Z m 6,0 v 1 C 21,35.362302 21.440289,36 21.988281,36 h 2.023438 C 24.559711,36 25,35.362302 25,34.570312 v -1 C 25,34.362302 24.559711,35 24.011719,35 H 21.988281 C 21.440289,35 21,34.362302 21,33.570312 Z m 12,0 v 1 C 33,35.362302 33.440289,36 33.988281,36 h 2.023438 C 36.559711,36 37,35.362302 37,34.570312 v -1 C 37,34.362302 36.559711,35 36.011719,35 H 33.988281 C 33.440289,35 33,34.362302 33,33.570312 Z m 6,0 v 1 C 39,35.362302 39.440289,36 39.988281,36 h 2.023438 C 42.559711,36 43,35.362302 43,34.570312 v -1 C 43,34.362302 42.559711,35 42.011719,35 H 39.988281 C 39.440289,35 39,34.362302 39,33.570312 Z m 6,0 v 1 C 45,35.362302 45.440289,36 45.988281,36 h 2.023438 C 48.559711,36 49,35.362302 49,34.570312 v -1 C 49,34.362302 48.559711,35 48.011719,35 H 45.988281 C 45.440289,35 45,34.362302 45,33.570312 Z"/>
 <path style="fill:#4f4f4f" d="m 15.992837,10.00074 c -0.548392,0 -0.992185,0.637391 -0.992185,1.429579 V 33.57001 c 0,0.791989 0.443793,1.429979 0.992185,1.429979 h 2.01957 c 0.548392,0 0.988185,-0.63799 0.988185,-1.429979 V 11.430319 c 0,-0.792588 -0.439793,-1.429979 -0.988185,-1.429979 h -2.01957 z m 5.995711,0 c -0.547992,0 -0.987985,0.637391 -0.987985,1.429579 V 33.57001 c 0,0.791989 0.439993,1.429979 0.987985,1.429979 h 2.02337 c 0.547992,0 0.987986,-0.63799 0.987986,-1.429979 V 11.430319 c 0,-0.792588 -0.439994,-1.429979 -0.987986,-1.429979 h -2.02337 z m 11.999823,0 c -0.547992,0 -0.987986,0.637391 -0.987986,1.429579 V 33.57001 c 0,0.791989 0.439994,1.429979 0.987986,1.429979 h 2.02337 c 0.547992,0 0.987985,-0.63799 0.987985,-1.429979 V 11.430319 c 0,-0.792588 -0.439993,-1.429979 -0.987985,-1.429979 h -2.02337 z m 5.999911,0 c -0.547992,0 -0.987986,0.637391 -0.987986,1.429579 V 33.57001 c 0,0.791989 0.439994,1.429979 0.987986,1.429979 h 2.02337 c 0.547992,0 0.987985,-0.63799 0.987985,-1.429979 V 11.430319 c 0,-0.792588 -0.439993,-1.429979 -0.987985,-1.429979 h -2.02337 z m 5.999911,0 c -0.547992,0 -0.987985,0.637391 -0.987985,1.429579 V 33.57001 c 0,0.791989 0.439993,1.429979 0.987985,1.429979 h 2.02337 c 0.547992,0 0.987985,-0.63799 0.987985,-1.429979 V 11.430319 c 0,-0.792588 -0.439993,-1.429979 -0.987985,-1.429979 h -2.02337 z"/>
 <path style="opacity:0.1;fill:#ffffff" d="M 15.992188 10 C 15.443796 10 15 10.637499 15 11.429688 L 15 12.429688 C 15 11.637499 15.443796 11 15.992188 11 L 18.011719 11 C 18.560111 11 19 11.6375 19 12.429688 L 19 11.429688 C 19 10.6375 18.560111 10 18.011719 10 L 15.992188 10 z M 21.988281 10 C 21.440289 10 21 10.637499 21 11.429688 L 21 12.429688 C 21 11.637499 21.440289 11 21.988281 11 L 24.011719 11 C 24.559711 11 25 11.6375 25 12.429688 L 25 11.429688 C 25 10.6375 24.559711 10 24.011719 10 L 21.988281 10 z M 33.988281 10 C 33.440289 10 33 10.637499 33 11.429688 L 33 12.429688 C 33 11.637499 33.440289 11 33.988281 11 L 36.011719 11 C 36.559711 11 37 11.6375 37 12.429688 L 37 11.429688 C 37 10.6375 36.559711 10 36.011719 10 L 33.988281 10 z M 39.988281 10 C 39.440289 10 39 10.637499 39 11.429688 L 39 12.429688 C 39 11.637499 39.440289 11 39.988281 11 L 42.011719 11 C 42.559711 11 43 11.6375 43 12.429688 L 43 11.429688 C 43 10.6375 42.559711 10 42.011719 10 L 39.988281 10 z M 45.988281 10 C 45.440289 10 45 10.637499 45 11.429688 L 45 12.429688 C 45 11.637499 45.440289 11 45.988281 11 L 48.011719 11 C 48.559711 11 49 11.6375 49 12.429688 L 49 11.429688 C 49 10.6375 48.559711 10 48.011719 10 L 45.988281 10 z"/>
 <path style="fill:#ffffff;opacity:0.1" d="M 9.5 8 C 8.115 8 7 9.1887456 7 10.666016 L 7 11.666016 C 7 10.188746 8.115 9 9.5 9 L 54.5 9 C 55.885184 9 57 10.189485 57 11.666016 L 57 10.666016 C 57 9.1894846 55.885184 8 54.5 8 L 9.5 8 z"/>
</svg>
